material/.icons/material/repeat-off.svg

<svg xmlns="http://www.w3.org/2000/svg" viewBox="0 0 24 24"><path d="M2 5.27L3.28 4 20 20.72 18.73 22l-3-3H7v3l-4-4 4-4v3h6.73L7 10.27V11H5V8.27l-3-3M17 13h2v4.18l-2-2V13m0-8V2l4 4-4 4V7H8.82l-2-2H17z"/></svg>

<?xml version="1.0" encoding="UTF-8"?><!DOCTYPE svg PUBLIC "-//W3C//DTD SVG 1.1//EN" "http://www.w3.org/Graphics/SVG/1.1/DTD/svg11.dtd"><svg xmlns="http://www.w3.org/2000/svg" xmlns:xlink="http://www.w3.org/1999/xlink" version="1.1" id="mdi-repeat-off" width="24" height="24" viewBox="0 0 24 24"><path d="M2,5.27L3.28,4L20,20.72L18.73,22L15.73,19H7V22L3,18L7,14V17H13.73L7,10.27V11H5V8.27L2,5.27M17,13H19V17.18L17,15.18V13M17,5V2L21,6L17,10V7H8.82L6.82,5H17Z" /></svg>
